img/header/logo.svg

<svg width="83" height="62" viewBox="0 0 83 62" fill="none" xmlns="http://www.w3.org/2000/svg">
<path fill-rule="evenodd" clip-rule="evenodd" d="M18.3385 8.79466C18.4751 7.7609 18.5847 6.6395 18.7265 5.61985C18.776 5.26432 18.8124 4.92141 18.8559 4.56605L18.9534 3.77627C18.9713 3.64806 18.9539 3.54186 19.0148 3.54186H20.8837L21.029 4.72757C21.0779 5.12688 21.1177 5.51332 21.1735 5.91419C21.2292 6.31449 21.264 6.69846 21.3197 7.09891C21.3754 7.4997 21.4152 7.88615 21.4642 8.28562L21.9014 11.8414C21.9252 12.0218 21.933 11.986 21.744 11.9855H20.7491L20.5706 10.1337C20.5614 10.0615 20.5474 9.96191 20.5474 9.87459H19.3239C19.31 10.0415 19.2799 10.231 19.2706 10.3993C19.2541 10.6965 19.2019 11.139 19.1748 11.4599C19.1607 11.6274 19.1362 11.8182 19.1223 11.9855H17.9526L18.014 11.4418C18.1326 10.585 18.2242 9.65997 18.3385 8.79491L18.3385 8.79466ZM19.5851 7.27173C19.5596 7.45188 19.5581 7.61868 19.5352 7.79999L19.4316 8.86598H20.4399L20.1344 5.36664C20.1248 5.29574 20.1182 5.16769 20.1172 5.10132C20.1149 4.92908 20.077 4.73969 20.077 4.56358H19.8215C19.7662 4.56358 19.7799 4.61387 19.7808 4.67093L19.7534 5.08722C19.7138 5.60377 19.6572 6.22173 19.6331 6.72814L19.5851 7.27181V7.27173ZM27.9152 7.75002C27.9152 8.45118 27.933 9.14829 27.9416 9.84804C27.9427 9.93362 27.9558 9.99884 27.9557 10.103C27.9554 10.301 27.9595 10.6707 28.0316 10.8203C28.1689 11.1058 28.4787 11.1248 28.7892 11.1248H34.8125C34.9838 11.1248 35.1524 11.1146 35.2814 11.0694C35.3799 11.0347 35.4516 10.983 35.5138 10.8984C35.6513 10.7112 35.6293 10.3498 35.6322 10.1158C35.6331 10.0324 35.6464 9.97526 35.6462 9.87443C35.6447 9.21507 35.6731 8.49487 35.6731 7.83074C35.6731 7.64391 35.6597 7.50655 35.6597 7.31988L35.6462 5.7737C35.6463 5.59783 35.6326 5.45025 35.6327 5.26284C35.6331 4.75041 35.575 4.40239 34.9471 4.40239H28.628C28.2907 4.40239 28.0691 4.53192 27.9982 4.79452C27.9735 4.88637 27.955 5.16917 27.9555 5.26267C27.9565 5.44184 27.9421 5.58019 27.9423 5.7469C27.943 6.39826 27.9153 7.09199 27.9153 7.7501L27.9152 7.75002ZM58.128 7.01275L57.9512 8.86598H58.9595L58.9062 8.32775C58.8806 7.86446 58.7943 7.32623 58.7712 6.84926C58.7684 6.78997 58.7594 6.79344 58.7577 6.72838C58.7556 6.64898 58.7507 6.53158 58.7387 6.45168L58.6156 4.82693C58.6057 4.76064 58.5965 4.62591 58.5965 4.56366H58.314C58.3022 4.61478 58.2882 4.77317 58.2869 4.83228L58.2327 5.65192C58.1994 6.07596 58.1716 6.59729 58.1279 7.01284L58.128 7.01275ZM62.2265 4.56358V7.93825H62.5896C63.2492 7.93825 63.4381 7.73271 63.4366 7.11813C63.4364 7.00913 63.4504 6.94251 63.4505 6.84975V5.63881C63.4504 5.54795 63.4363 5.48941 63.4366 5.38379C63.4392 4.4888 62.9851 4.56358 62.2265 4.56358ZM22.4701 8.86598H23.5188C23.5812 8.86598 23.5453 8.94612 23.5454 9.02701C23.5454 9.09338 23.5503 9.17739 23.5449 9.2417C23.5144 9.61215 23.5408 10.0276 23.5452 10.3991C23.5507 10.8679 23.7555 11.1306 24.2431 11.1191C24.8126 11.1055 24.8514 10.8061 24.9017 10.3564C24.9105 10.2783 24.8968 10.1973 24.9073 10.12C24.9327 9.93486 24.9031 9.70375 24.9037 9.52476L24.8883 9.16362C24.8673 8.96863 24.8109 8.70545 24.7179 8.58112C24.3997 8.15625 23.2004 8.36312 22.7093 7.57803C22.3453 6.99593 22.4163 6.07818 22.4163 5.35683C22.4163 4.77449 22.5226 4.24631 22.7957 3.93465C22.8686 3.85163 22.9324 3.78385 23.0389 3.72069C23.3057 3.5628 23.6726 3.48027 24.0452 3.46106H24.3898C24.654 3.47466 24.9061 3.51919 25.1106 3.59026C25.3299 3.66644 25.5017 3.79152 25.634 3.95428C26.134 4.57009 25.9928 5.75473 25.9928 6.59366H24.8903C24.8903 6.30525 24.9038 6.0626 24.9038 5.77353C24.9038 5.43573 24.944 4.84292 24.7774 4.62261C24.5877 4.37164 24.1211 4.35251 23.8591 4.47346C23.761 4.51889 23.6993 4.59161 23.6533 4.68445C23.6021 4.78718 23.5795 4.88052 23.5626 5.01054C23.5539 5.0779 23.5573 5.1559 23.5495 5.21254C23.5407 5.27661 23.5458 5.34537 23.5458 5.41067C23.5458 5.87338 23.5095 6.45952 23.6744 6.85519C23.8962 7.38807 24.8569 7.13808 25.5048 7.68678C25.9463 8.06036 26.0466 8.7879 26.0466 9.41724C26.0466 10.4212 26.1186 11.5403 25.1749 11.92C24.9637 12.005 24.694 12.0525 24.4149 12.0658H24.0813C23.8179 12.0533 23.5635 12.0116 23.3592 11.9433C22.955 11.8083 22.735 11.5454 22.589 11.1537C22.4065 10.6637 22.4358 9.84524 22.4428 9.28219C22.4439 9.1952 22.4703 9.02222 22.4703 8.8659L22.4701 8.86598ZM26.8506 10.7104C26.8092 10.3707 26.811 9.9746 26.8128 9.61883C26.8135 9.49301 26.7992 9.39481 26.7992 9.25589C26.7994 8.76308 26.7897 8.23186 26.7897 7.76346C26.7897 7.29506 26.7992 6.76392 26.7992 6.2712C26.7992 6.02369 26.8127 5.79266 26.8127 5.53179C26.8127 4.91523 26.8454 4.1961 27.3351 3.79539C27.6246 3.55827 28.115 3.46123 28.5068 3.46123H35.068C35.6273 3.46123 36.2433 3.60865 36.5244 4.11563C36.6067 4.26387 36.6692 4.44691 36.7073 4.63177C36.7362 4.77168 36.7576 4.95753 36.7616 5.11542C36.7634 5.1841 36.7758 5.19811 36.7759 5.27586C36.7761 5.39245 36.7759 5.50953 36.7753 5.62603C36.7747 5.74129 36.7889 5.83215 36.7889 5.96193C36.7889 6.43354 36.8025 6.86913 36.8025 7.34676L36.7889 9.59212C36.789 9.72379 36.7749 9.80278 36.7754 9.92818C36.7768 10.2985 36.7712 10.5411 36.7047 10.906C36.6399 11.262 36.4746 11.5793 36.1839 11.7836C35.9316 11.9611 35.5013 12.0659 35.068 12.0659H28.5068C27.5445 12.0659 26.9672 11.6675 26.8507 10.7104H26.8506ZM37.6659 10.9332C37.5727 10.5356 37.5682 9.79766 37.5816 9.34947L37.608 8.99938C37.6122 8.93639 37.5873 8.8659 37.6492 8.8659H38.6979C38.6979 8.96797 38.6838 9.01274 38.6842 9.10764L38.671 9.59203C38.6717 9.86643 38.6676 10.5212 38.7398 10.7333C38.7834 10.8619 38.834 10.944 38.9421 11.015C39.1312 11.139 39.5307 11.1468 39.7291 11.0533C40.0708 10.8925 40.0558 10.3573 40.0558 9.94146C40.0558 9.52979 40.0725 8.87373 39.8449 8.56595C39.7301 8.41094 39.5343 8.36914 39.3271 8.31736C39.1177 8.265 38.9239 8.21702 38.719 8.15906C38.4276 8.07677 38.0664 7.89637 37.8936 7.64012C37.4895 7.04103 37.555 6.16748 37.555 5.42394C37.555 5.01367 37.5967 4.50504 37.7879 4.16444C37.8322 4.08554 37.8468 4.04258 37.9158 3.95634C38.0511 3.7874 38.232 3.66537 38.4608 3.58696C38.6761 3.51309 38.9668 3.46106 39.2492 3.46106C39.8033 3.46106 40.3753 3.49742 40.7582 3.92839C41.2128 4.43974 41.1449 5.38577 41.1449 6.09632C41.1449 6.27928 41.1314 6.41202 41.1314 6.59366H40.029C40.029 6.21884 40.0828 5.07246 40.0039 4.80359C39.9724 4.69575 39.9143 4.59582 39.8301 4.53373L39.6644 4.44403C39.4156 4.35449 38.929 4.37147 38.7784 4.71141C38.6639 4.96998 38.6835 5.58266 38.684 5.93538C38.6841 6.01626 38.6975 6.03292 38.6984 6.10919C38.7019 6.4023 38.7137 6.6602 38.8454 6.91687C39.0976 7.40843 40.466 7.11565 40.9343 8.05459C41.099 8.38472 41.1852 8.8335 41.1852 9.323C41.1852 9.84524 41.2061 10.3916 41.108 10.8861C41.0537 11.1595 40.9761 11.3255 40.8332 11.5391C40.5764 11.9222 39.9679 12.0658 39.4911 12.0658C38.5576 12.0658 37.8944 11.9067 37.6658 10.9332H37.6659ZM42.2581 11.504C42.0726 11.2267 41.9743 10.832 41.9646 10.5067L41.9382 6.94325L41.951 5.28906C41.952 5.21427 41.9649 5.20339 41.9656 5.12886C41.9697 4.72287 42.078 4.30032 42.3262 3.9969C42.3433 3.97604 42.3535 3.96796 42.3703 3.94702C42.506 3.778 42.7089 3.66628 42.9119 3.58779C43.3337 3.42453 44.1701 3.42338 44.56 3.56866C44.6861 3.61565 44.9075 3.70379 45.0069 3.79391C45.0937 3.87265 45.1494 3.91363 45.2217 4.02296C45.3215 4.17384 45.3819 4.29685 45.4355 4.4813C45.5836 4.98985 45.5414 5.69174 45.5414 6.2576C45.5414 6.38844 45.5279 6.46487 45.5279 6.59366H44.3851L44.3986 5.20892C44.3986 4.90616 44.381 4.641 44.1407 4.49886C44.0751 4.46011 43.9812 4.42976 43.8978 4.41896C43.4987 4.36727 43.1912 4.47709 43.1151 4.89338L43.094 5.19506C43.0908 5.30011 43.0943 5.41215 43.0943 5.5181C43.0944 5.64062 43.0801 5.71656 43.0807 5.82721L43.0675 6.78198C43.0675 7.44265 43.0465 8.3881 43.0809 9.02717L43.0804 9.72676C43.0806 9.81341 43.095 9.84705 43.0945 9.94121C43.0909 10.5731 43.0278 11.1246 43.7666 11.1246C44.2562 11.1246 44.4387 10.8754 44.4387 10.3852V8.87934H45.5816C45.5816 9.3366 45.6121 10.2048 45.5571 10.6431C45.519 10.9477 45.4442 11.2243 45.3101 11.4314C45.236 11.546 45.172 11.6277 45.0675 11.7131C45.0118 11.7587 44.9797 11.7782 44.9175 11.8185C44.6891 11.9665 44.2943 12.0503 43.8829 12.0658H43.6037C43.2015 12.0507 42.8162 11.9696 42.5885 11.8188C42.4415 11.7214 42.3554 11.6498 42.2579 11.5039L42.2581 11.504ZM46.4153 11.9447V3.5821C46.4153 3.55118 46.4247 3.54178 46.4557 3.54178H47.5582V7.19876H48.7817V3.54178H49.9244V11.9851H48.7817V8.22048H47.5582V11.9851H46.4557C46.4247 11.9851 46.4153 11.9757 46.4153 11.9447ZM50.9059 11.9851V3.54178H52.0085C52.0394 3.54178 52.0488 3.55118 52.0488 3.5821V11.9447C52.0488 11.9757 52.0394 11.9851 52.0085 11.9851H50.9059ZM53.0168 11.9851V3.54178H54.1597V10.9633H56.042V11.9851H53.0168ZM57.2479 5.62174L57.4897 3.64492C57.4956 3.59034 57.4787 3.54178 57.5344 3.54178H59.4032C59.405 3.62266 59.4313 3.75978 59.441 3.84L59.5498 4.72609C59.569 4.92974 59.595 5.12152 59.6224 5.32583C59.7012 5.91444 59.759 6.51871 59.8392 7.09891C59.8946 7.49946 59.9347 7.88483 59.9837 8.28545C60.0315 8.67428 60.085 9.0759 60.1292 9.47108C60.1515 9.66995 60.174 9.8642 60.2021 10.0704C60.2829 10.6626 60.3395 11.2513 60.421 11.8414C60.4456 12.0198 60.453 11.9859 60.2636 11.9853H59.2687C59.2551 11.8212 59.2222 11.6277 59.215 11.4608C59.2079 11.2931 59.18 11.0956 59.1634 10.9344L59.0671 9.87443H57.8437L57.765 10.6697C57.7554 10.7618 57.7567 10.8394 57.7437 10.9308L57.6953 11.4605C57.6859 11.6287 57.6558 11.8183 57.6419 11.9852H56.4722L56.7277 9.8609C56.7668 9.50901 56.812 9.13914 56.8581 8.79466C56.9058 8.43798 56.94 8.09788 56.9873 7.74062C57.0789 7.0459 57.1563 6.31581 57.248 5.62182L57.2479 5.62174ZM61.0838 11.9447V3.5821C61.0838 3.55118 61.0932 3.54178 61.1241 3.54178H62.5359C62.9122 3.54178 63.262 3.56297 63.5625 3.64435C64.4191 3.87677 64.5823 4.67497 64.5794 5.45091C64.5789 5.56147 64.5937 5.61515 64.593 5.71961C64.5925 5.81369 64.5929 5.90801 64.5929 6.00208C64.5929 6.79913 64.6678 7.85391 64.2242 8.41663C64.1343 8.5309 63.9393 8.71229 63.7997 8.74478C63.8048 8.80752 63.8373 8.89764 63.855 8.95841C63.8737 9.02247 63.8914 9.08629 63.9118 9.15695C63.9826 9.40166 64.7075 11.9099 64.7138 11.9851H63.5038L62.8047 9.29604C62.7883 9.23057 62.7742 9.17286 62.7564 9.10228C62.7338 9.01225 62.7311 8.94645 62.6837 8.94645H62.2265V11.9851H61.124C61.0931 11.9851 61.0837 11.9757 61.0837 11.9447L61.0838 11.9447ZM68.6035 0.955078H14.0629C13.1553 0.955078 12.4128 1.69746 12.4128 2.60507V12.922C12.4128 13.8295 13.1552 14.5721 14.0629 14.5721H68.6035C69.5111 14.5721 70.2536 13.8296 70.2536 12.922V2.60507C70.2536 1.69754 69.5111 0.955078 68.6035 0.955078Z" fill="white"/>
<path d="M14.8795 48.6578H18.4617C19.3802 48.6578 19.8394 49.1171 19.8394 50.0356V54.2241C19.8394 59.0004 17.4513 61.3885 12.675 61.3885H7.16391C2.38759 61.3885 -0.000488281 59.0003 -0.000488281 54.2241V24.464C-0.000488281 19.6876 2.38767 17.2996 7.16391 17.2996H12.675C17.4513 17.2996 19.8394 19.6877 19.8394 24.464V28.6525C19.8394 29.571 19.3802 30.0302 18.4617 30.0302H14.8795C13.961 30.0302 13.5018 29.571 13.5018 28.6525V27.3849C13.5018 25.805 13.2996 24.7855 12.8955 24.3263C12.4913 23.867 11.4993 23.6374 9.91947 23.6374C8.55995 23.6374 7.62316 23.8486 7.10875 24.2712C6.59435 24.6937 6.33719 25.7316 6.33719 27.3849V51.3031C6.33719 52.9564 6.59435 53.9945 7.10875 54.4169C7.62308 54.8394 8.55995 55.0506 9.91947 55.0506C10.6175 55.0506 11.1227 55.0323 11.435 54.9956C11.7473 54.9589 12.0964 54.8303 12.4821 54.6098C12.8679 54.3894 13.1343 54.0128 13.2812 53.48C13.4281 52.9473 13.5017 52.2216 13.5017 51.3031V50.0356C13.5017 49.1171 13.961 48.6578 14.8795 48.6578ZM22.0444 59.4597V18.6773C22.0444 17.7588 22.5036 17.2996 23.4221 17.2996H27.0043C27.9228 17.2996 28.3821 17.7588 28.3821 18.6773V53.3974C28.3821 54.0219 28.5015 54.4537 28.7403 54.6925C28.9792 54.9313 29.4108 55.0507 30.0354 55.0507H36.1528C37.0713 55.0507 37.5305 55.51 37.5305 56.4285V60.0107C37.5305 60.9292 37.0713 61.3885 36.1528 61.3885H23.9732C23.2384 61.3885 22.7332 61.2507 22.4576 60.9752C22.1821 60.6996 22.0444 60.1945 22.0444 59.4597ZM52.7416 50.752V18.6773C52.7416 17.7588 53.2009 17.2996 54.1194 17.2996H57.7016C58.6201 17.2996 59.0794 17.7588 59.0794 18.6773V54.2241C59.0794 59.0004 56.6912 61.3885 51.915 61.3885H46.3487C41.5724 61.3885 39.1843 59.0003 39.1843 54.2241V18.6773C39.1843 17.7588 39.6436 17.2996 40.5621 17.2996H44.1443C45.0627 17.2996 45.5221 17.7588 45.5221 18.6773V50.752C45.5221 52.4422 45.7792 53.5811 46.2936 54.1689C46.808 54.7568 47.6898 55.0507 48.939 55.0507H49.2696C50.5922 55.0507 51.5016 54.766 51.9976 54.1965C52.4935 53.6271 52.7416 52.479 52.7416 50.752ZM62.3866 59.4597V19.2285C62.3866 18.4937 62.5244 17.9884 62.7999 17.7129C63.0755 17.4374 63.5807 17.2996 64.3155 17.2996H74.5662C79.3425 17.2996 81.7306 19.6877 81.7306 24.464V34.1636C81.7306 35.0454 81.4183 36.1108 80.7936 37.36C80.6099 37.6907 80.6467 38.0031 80.9039 38.297C82.0796 39.5461 82.6675 41.0158 82.6675 42.7058V54.2241C82.6675 59.0004 80.2793 61.3885 75.5031 61.3885H64.3155C63.0296 61.3885 62.3866 60.7456 62.3866 59.4597ZM72.9128 41.6036H70.3777C69.7531 41.6036 69.3214 41.723 69.0825 41.9619C68.8438 42.2007 68.7243 42.6324 68.7243 43.257V53.3974C68.7243 54.022 68.8438 54.4538 69.0825 54.6926C69.3214 54.9314 69.753 55.0508 70.3777 55.0508H72.3066C73.7763 55.0508 74.8142 54.8304 75.4204 54.3895C76.0266 53.9486 76.3296 52.9198 76.3296 51.3032V45.3512C76.3296 43.8449 76.0633 42.8528 75.5306 42.3752C74.9978 41.8976 74.1253 41.6404 72.9128 41.6036ZM71.3697 23.6374H70.3777C69.7531 23.6374 69.3214 23.7568 69.0825 23.9956C68.8438 24.2344 68.7243 24.6661 68.7243 25.2908V33.6125C68.7243 34.2004 68.8438 34.6229 69.0825 34.8801C69.3214 35.1373 69.753 35.2658 70.3777 35.2658H71.3697C72.8394 35.2658 73.8773 35.0454 74.4834 34.6045C75.0898 34.1636 75.3928 33.1348 75.3928 31.5182V27.3848C75.3928 25.7682 75.0897 24.7395 74.4834 24.2986C73.8772 23.8577 72.8393 23.6374 71.3697 23.6374Z" fill="white"/>
</svg>

<svg xmlns="http://www.w3.org/2000/svg" width="83" height="62" fill="none"><path fill="#fff" fill-rule="evenodd" d="M18.34 8.8c.14-1.04.24-2.16.39-3.18l.13-1.05.1-.8c.01-.12 0-.23.05-.23h1.87l.15 1.19.14 1.18.15 1.19c.06.4.1.79.14 1.19l.44 3.55c.03.18.03.15-.16.15h-1l-.17-1.86-.02-.26h-1.23l-.05.53-.1 1.06c0 .17-.03.36-.05.53h-1.17l.06-.55c.12-.85.21-1.78.33-2.65Zm1.25-1.53c-.03.18-.03.35-.05.53l-.1 1.07h1l-.3-3.5c-.02-.07-.02-.2-.02-.27 0-.17-.04-.36-.04-.54h-.26c-.05 0-.04.05-.04.11l-.03.42c-.04.51-.1 1.13-.12 1.64l-.04.54Zm8.33.48.02 2.1.02.25c0 .2 0 .57.07.72.14.29.45.3.76.3h6.02c.17 0 .34 0 .47-.05.1-.04.17-.09.23-.17.14-.19.12-.55.12-.78l.02-.25.02-2.04-.01-.51-.01-1.55-.02-.5c0-.52-.05-.87-.68-.87h-6.32c-.34 0-.56.13-.63.4-.03.09-.05.37-.04.46l-.02.49-.02 2Zm30.2-.74-.17 1.86h1l-.04-.54c-.03-.47-.12-1-.14-1.48l-.01-.12c0-.08 0-.2-.02-.28l-.12-1.62-.02-.27h-.29l-.02.27-.06.82-.1 1.36Zm4.1-2.45v3.38h.37c.66 0 .85-.2.85-.82l.01-.27V5.64l-.01-.26c0-.9-.45-.82-1.21-.82Zm-39.75 4.3h1.05c.06 0 .03.09.03.17v.21c-.04.37 0 .79 0 1.16 0 .47.2.73.7.72.56-.01.6-.31.65-.76v-.24c.03-.19 0-.42 0-.6l-.01-.36a1.4 1.4 0 0 0-.17-.58c-.32-.42-1.52-.22-2.01-1-.36-.58-.3-1.5-.3-2.22 0-.59.11-1.11.39-1.43a.95.95 0 0 1 .24-.2c.27-.17.63-.25 1-.27h.35c.26.01.52.06.72.13.22.08.4.2.52.36.5.62.36 1.8.36 2.64h-1.1l.01-.82c0-.33.04-.93-.12-1.15-.2-.25-.66-.27-.92-.15a.42.42 0 0 0-.2.21c-.06.1-.08.2-.1.33l-.01.2v.2c0 .46-.04 1.05.12 1.45.23.53 1.19.28 1.83.83.45.37.55 1.1.55 1.73 0 1 .07 2.12-.88 2.5a2.4 2.4 0 0 1-.76.15h-.33a2.76 2.76 0 0 1-.72-.13c-.4-.13-.63-.4-.77-.79-.18-.49-.15-1.3-.15-1.87 0-.08.03-.26.03-.41Zm4.38 1.85a9.1 9.1 0 0 1-.04-1.1l-.01-.35-.01-1.5V6.27l.02-.74c0-.61.04-1.33.53-1.73.28-.24.77-.34 1.17-.34h6.56c.56 0 1.17.15 1.45.66.09.14.15.33.19.51.03.14.05.33.05.49l.02.16V5.96l.02 1.39-.01 2.24c0 .13-.02.21-.01.34 0 .37 0 .61-.08.98-.06.35-.23.67-.52.87-.25.18-.68.29-1.11.29H28.5c-.97 0-1.54-.4-1.66-1.36Zm10.82.22a7.7 7.7 0 0 1-.09-1.58l.03-.35c0-.06-.02-.13.04-.13h1.05l-.02.24v.48c0 .28-.01.93.06 1.14.04.13.1.21.2.29a1 1 0 0 0 .79.03c.34-.16.33-.7.33-1.1 0-.42.01-1.08-.22-1.38-.11-.16-.3-.2-.51-.25l-.61-.16c-.3-.08-.65-.26-.83-.52-.4-.6-.34-1.47-.34-2.22 0-.4.05-.91.24-1.26.04-.07.06-.12.13-.2.13-.17.31-.3.54-.37.22-.08.5-.13.79-.13.55 0 1.13.04 1.5.47.46.51.4 1.46.4 2.17l-.02.5h-1.1c0-.38.05-1.53-.03-1.8a.51.51 0 0 0-.17-.27l-.17-.09c-.24-.09-.73-.07-.88.27-.12.26-.1.87-.1 1.23l.02.17c0 .3.01.55.15.8.25.5 1.62.2 2.08 1.14.17.33.26.78.26 1.27 0 .53.02 1.07-.08 1.57-.06.27-.13.44-.28.65-.25.38-.86.53-1.34.53-.93 0-1.6-.16-1.82-1.14Zm4.59.57a2.01 2.01 0 0 1-.3-1l-.02-3.56.01-1.65.02-.16c0-.4.1-.83.36-1.13l.04-.05c.14-.17.34-.28.54-.36a3 3 0 0 1 1.65-.02c.13.05.35.13.45.22.08.08.14.12.21.23.1.15.16.28.22.46.14.51.1 1.21.1 1.78l-.01.33h-1.14V5.21c0-.3 0-.57-.25-.71a.68.68 0 0 0-.24-.08c-.4-.05-.7.06-.78.47l-.03.3v.63l-.02.96c0 .66-.02 1.6.01 2.25v.7c0 .08.02.12.01.21 0 .63-.06 1.18.68 1.18.49 0 .67-.24.67-.73V8.88h1.14c0 .46.03 1.32-.02 1.76-.04.3-.12.58-.25.8-.07.1-.14.19-.24.27l-.15.1c-.23.16-.63.24-1.04.26h-.28c-.4-.02-.78-.1-1.01-.25-.15-.1-.23-.17-.33-.32Zm4.16.44V3.58c0-.03 0-.04.04-.04h1.1V7.2h1.22V3.54h1.14V12h-1.14V8.22h-1.22v3.77h-1.1c-.04 0-.04-.01-.04-.05Zm4.49.05V3.54H52c.03 0 .04.01.04.04v8.36c0 .04-.01.05-.04.05h-1.1Zm2.1 0V3.54h1.15v7.42h1.88V12h-3.02Zm4.24-6.37.24-1.98c0-.05-.01-.1.04-.1h1.87c0 .08.03.22.04.3l.11.89.07.6.22 1.77.14 1.19.15 1.18.07.6.22 1.77c.03.18.03.15-.16.15h-1c0-.17-.04-.36-.04-.53l-.06-.53-.1-1.06h-1.22l-.08.8c0 .1 0 .17-.02.26l-.04.53-.06.53h-1.17l.26-2.13.13-1.07.13-1.05.26-2.12Zm3.83 6.32V3.58c0-.03.01-.04.04-.04h1.42c.37 0 .72.02 1.02.1.86.24 1.02 1.03 1.02 1.81l.01.27V6c0 .8.08 1.85-.37 2.42-.09.11-.28.3-.42.32 0 .07.04.16.05.22l.06.2c.07.24.8 2.75.8 2.83h-1.2l-.7-2.7-.05-.19c-.03-.09-.03-.15-.08-.15h-.45v3.04h-1.1c-.04 0-.05-.01-.05-.05ZM68.6.96H14.06c-.9 0-1.65.74-1.65 1.65v10.31c0 .9.75 1.65 1.65 1.65H68.6c.91 0 1.65-.74 1.65-1.65V2.61c0-.91-.74-1.65-1.65-1.65Z" clip-rule="evenodd"/><path fill="#fff" d="M14.88 48.66h3.58c.92 0 1.38.46 1.38 1.38v4.18c0 4.78-2.39 7.17-7.16 7.17H7.16C2.4 61.39 0 59 0 54.22V24.46c0-4.77 2.39-7.16 7.16-7.16h5.52c4.77 0 7.16 2.39 7.16 7.16v4.2c0 .91-.46 1.37-1.38 1.37h-3.58c-.92 0-1.38-.46-1.38-1.38v-1.27c0-1.57-.2-2.6-.6-3.05-.4-.46-1.4-.7-2.98-.7-1.36 0-2.3.22-2.81.64-.52.42-.77 1.46-.77 3.11V51.3c0 1.66.25 2.7.77 3.12.51.42 1.45.63 2.8.63.7 0 1.21-.02 1.53-.05.3-.04.66-.17 1.04-.39.39-.22.65-.6.8-1.13.15-.53.22-1.26.22-2.18v-1.26c0-.92.46-1.38 1.38-1.38Zm7.16 10.8V18.68c0-.92.46-1.38 1.38-1.38H27c.92 0 1.38.46 1.38 1.38V53.4c0 .62.12 1.05.36 1.3.24.23.67.35 1.3.35h6.11c.92 0 1.38.46 1.38 1.38V60c0 .92-.46 1.38-1.38 1.38H23.97c-.73 0-1.24-.14-1.51-.41-.28-.28-.42-.79-.42-1.52Zm30.7-8.7V18.67c0-.92.46-1.38 1.38-1.38h3.58c.92 0 1.38.46 1.38 1.38v35.54c0 4.78-2.39 7.17-7.16 7.17h-5.57c-4.78 0-7.17-2.39-7.17-7.17V18.68c0-.92.46-1.38 1.38-1.38h3.58c.92 0 1.38.46 1.38 1.38v32.07c0 1.7.26 2.83.77 3.42.52.59 1.4.88 2.65.88h.33c1.32 0 2.23-.28 2.73-.85s.74-1.72.74-3.45Zm9.65 8.7V19.23c0-.74.13-1.24.41-1.52.28-.27.78-.41 1.52-.41h10.25c4.77 0 7.16 2.39 7.16 7.16v9.7c0 .89-.31 1.95-.94 3.2-.18.33-.14.64.11.94a6.22 6.22 0 0 1 1.77 4.4v11.52c0 4.78-2.4 7.17-7.17 7.17H64.32c-1.29 0-1.93-.64-1.93-1.93ZM72.9 41.6h-2.53c-.63 0-1.06.12-1.3.36s-.36.67-.36 1.3V53.4c0 .62.12 1.05.36 1.3.24.23.67.35 1.3.35h1.93c1.47 0 2.5-.22 3.11-.66.6-.44.91-1.47.91-3.09v-5.95c0-1.5-.27-2.5-.8-2.97-.53-.48-1.4-.74-2.62-.78Zm-1.54-17.96h-1c-.62 0-1.05.12-1.29.36-.24.23-.36.67-.36 1.3v8.31c0 .59.12 1.01.36 1.27s.67.39 1.3.39h.99c1.47 0 2.5-.22 3.11-.67.61-.44.91-1.47.91-3.08v-4.14c0-1.61-.3-2.64-.9-3.08-.61-.44-1.65-.66-3.12-.66Z"/></svg>
